symbolic/24x24/apps/houdini.svg

<svg xmlns="http://www.w3.org/2000/svg" width="24" height="24" version="1">
 <path style="opacity:0.2" d="m 2.991211,1.5 h 18 c 0.554,0 1,0.446 1,1 v 18 c 0,0.554 -0.446,1 -1,1 H 8.3482524 L 5.0893619,20.7532 C 4.5493589,20.629455 3.4694426,19.927231 3.3070004,19.397582 L 1.991211,15.107397 V 2.5 c 0,-0.554 0.446,-1 1,-1 z"/>
 <path style="fill:#ff5722" d="m 2.991211,1 h 18 c 0.554,0 1,0.446 1,1 v 18 c 0,0.554 -0.446,1 -1,1 H 8.3482524 L 5.0893619,20.2532 C 4.5493589,20.129455 3.4694426,19.427231 3.3070004,18.897582 L 1.991211,14.607397 V 2 c 0,-0.554 0.446,-1 1,-1 z"/>
 <path style="opacity:0.2;fill:#ffffff" d="M 1.991211,2.5 V 2 c 0,-0.554 0.446,-1 1,-1 h 18 c 0.554,0 1,0.446 1,1 v 0.5 c 0,-0.554 -0.446,-1 -1,-1 h -18 c -0.554,0 -1,0.446 -1,1 z"/>
 <path style="opacity:0.2" d="M 7.9365234,4.5 C 7.4237769,4.49645 6.9093605,4.52023 6.5302734,4.5722655 4.9409024,4.7904315 3.4760031,5.316236 1.991211,6.192383 V 8.7822265 C 3.4797561,7.44959 5.4814245,6.5727335 7.5976565,6.5 7.7667195,6.49419 7.930736,6.493245 8.0908204,6.49805 9.21141,6.531615 10.127742,6.817938 11.054687,7.265628 c 1.861964,0.899277 3.227057,2.6104195 3.726563,4.670898 0.575631,2.37449 0.03898,4.92279 -1.353516,6.431641 -1.060373,1.148962 -2.987644,1.806699 -4.8222651,1.646484 -1.13223,-0.09888 -2.2683935,-0.478075 -3.098633,-1.036133 C 5.1634785,18.747723 4.5828767,18.184349 4.3339844,17.840823 3.6195975,16.854822 3.290731,15.815751 3.3828125,14.833987 c 0.1625217,-1.732754 1.4731097,-3.134831 3.5683594,-3.644531 0.602834,-0.14665 1.3177975,-0.209161 1.6728515,-0.145508 1.0236636,0.183522 1.8128076,1.248455 1.8095706,2.3125 -10e-4,0.323338 -0.01213,0.360263 -0.197266,0.734375 -0.456547,0.922589 -1.4971861,1.521096 -2.1877226,1.327149 -0.412032,-0.11573 -0.7436705,-0.675318 -0.841797,-1.265273 -0.055741,-0.3351 -0.1223239,-0.486352 -0.2529295,-0.578125 -0.430437,-0.302443 -1.167955,0.469977 -1.359375,1.422851 -0.1638285,0.815545 -0.028635,1.487707 0.457031,2.026992 0.332056,0.368713 0.9759861,0.735872 1.5869146,0.905273 0.2848679,0.07899 0.4289074,0.09082 1.1054684,0.09082 0.8770981,0 1.2638901,-0.0532 1.8361601,-0.325196 1.148379,-0.545819 2.05541,-1.772898 2.44043,-3.300781 0.42722,-1.695353 0.01088,-3.21405 -1.191407,-4.349609 C 11.042758,9.3022325 9.998183,8.820814 8.6386719,8.5751955 7.0131335,8.3134935 5.3140169,8.7494035 4.1162109,9.533203 1.8907412,11.011028 1.0845835,12.332017 1,15 1.01256,19.892101 4.4912109,22.5 8.7265625,22.5 15.192407,22.382438 17.611274,18.34904 17.97168,14.049805 18.099851,12.078087 17.590743,10.116837 16.273437,8.4589845 15.871345,7.9529425 15.015897,7.1312025 14.46875,6.723633 12.95972,5.5995365 11.235509,4.8828965 9.334961,4.591797 8.9604704,4.5344375 8.4492694,4.503555 7.9365234,4.5 Z"/>
 <path style="fill:#e4e4e4" d="M 7.9365234,4 C 7.4237769,3.99645 6.9093605,4.02023 6.5302734,4.0722655 4.9409024,4.2904315 3.4760031,4.816236 1.991211,5.692383 V 8.2822265 C 3.4797561,6.94959 5.4814245,6.0727335 7.5976565,6 7.7667195,5.99419 7.930736,5.993245 8.0908204,5.99805 9.21141,6.031615 10.127742,6.317938 11.054687,6.765628 c 1.861964,0.899277 3.227057,2.6104195 3.726563,4.670898 0.575631,2.37449 0.03898,4.92279 -1.353516,6.431641 -1.060373,1.148962 -2.987644,1.806699 -4.8222651,1.646484 -1.13223,-0.09888 -2.2683935,-0.478075 -3.098633,-1.036133 C 5.1634785,18.247723 4.5828767,17.684349 4.3339844,17.340823 3.6195975,16.354822 3.290731,15.315751 3.3828125,14.333987 c 0.1625217,-1.732754 1.4731097,-3.134831 3.5683594,-3.644531 0.602834,-0.14665 1.3177975,-0.209161 1.6728515,-0.145508 1.0236636,0.183522 1.8128076,1.248455 1.8095706,2.3125 -10e-4,0.323338 -0.01213,0.360263 -0.197266,0.734375 -0.456547,0.922588 -1.4971861,1.521096 -2.1877226,1.327149 -0.412032,-0.11573 -0.7436705,-0.675318 -0.841797,-1.265273 -0.055741,-0.3351 -0.1223239,-0.486352 -0.2529295,-0.578125 -0.430437,-0.302443 -1.167955,0.469977 -1.359375,1.422851 -0.1638285,0.815545 -0.028635,1.487707 0.457031,2.026992 0.332056,0.368713 0.9759861,0.735872 1.5869146,0.905273 0.2848679,0.07899 0.4289074,0.09082 1.1054684,0.09082 0.8770981,0 1.2638901,-0.0532 1.8361601,-0.325196 1.148379,-0.545819 2.05541,-1.772898 2.44043,-3.300781 0.42722,-1.695353 0.01088,-3.21405 -1.191407,-4.349609 C 11.042758,8.8022325 9.998183,8.320814 8.6386719,8.0751955 7.0131335,7.8134935 5.3140169,8.2494035 4.1162109,9.033203 1.8907412,10.511028 1.0845835,11.832017 1,14.5 1.01256,19.392101 4.4912109,22 8.7265625,22 15.192407,21.882438 17.611274,17.84904 17.97168,13.549805 18.099851,11.578087 17.590743,9.616837 16.273437,7.9589845 15.871345,7.4529425 15.015897,6.6312025 14.46875,6.223633 12.95972,5.0995365 11.235509,4.3828965 9.334961,4.091797 8.9604704,4.0344375 8.4492694,4.003555 7.9365234,4 Z"/>
</svg>

<svg xmlns="http://www.w3.org/2000/svg" width="24" height="24" version="1"><path style="opacity:.2" d="M2.991 1.5h18c.554 0 1 .446 1 1v18c0 .554-.446 1-1 1H8.348l-3.259-.747c-.54-.124-1.62-.826-1.782-1.355l-1.316-4.29V2.5c0-.554.446-1 1-1z"/><path style="fill:#ff5722" d="M2.991 1h18c.554 0 1 .446 1 1v18c0 .554-.446 1-1 1H8.348l-3.259-.747c-.54-.124-1.62-.826-1.782-1.355l-1.316-4.29V2c0-.554.446-1 1-1z"/><path style="opacity:.2;fill:#fff" d="M1.991 2.5V2c0-.554.446-1 1-1h18c.554 0 1 .446 1 1v.5c0-.554-.446-1-1-1h-18c-.554 0-1 .446-1 1z"/><path style="opacity:.2" d="M7.937 4.5c-.513-.004-1.028.02-1.407.072-1.59.218-3.054.744-4.539 1.62v2.59C3.48 7.45 5.481 6.572 7.598 6.5c.169-.006.333-.007.493-.002 1.12.034 2.037.32 2.964.768 1.862.899 3.227 2.61 3.726 4.67.576 2.375.04 4.923-1.353 6.432-1.06 1.15-2.988 1.807-4.823 1.647-1.132-.1-2.268-.478-3.098-1.036-.344-.231-.924-.795-1.173-1.138-.714-.986-1.043-2.025-.951-3.007.162-1.733 1.473-3.135 3.568-3.645.603-.146 1.318-.209 1.673-.145 1.024.183 1.813 1.248 1.81 2.312-.001.324-.013.36-.198.735-.456.922-1.497 1.52-2.187 1.327-.412-.116-.744-.675-.842-1.265-.056-.335-.123-.487-.253-.578-.43-.303-1.168.47-1.36 1.422-.163.816-.028 1.488.458 2.027.332.37.976.736 1.586.906.285.079.43.09 1.106.09.877 0 1.264-.053 1.836-.325 1.148-.546 2.055-1.773 2.44-3.3.428-1.696.011-3.215-1.19-4.35-.787-.743-1.832-1.224-3.191-1.47-1.626-.262-3.325.174-4.523.958C1.891 11.011 1.085 12.332 1 15c.013 4.892 3.491 7.5 7.727 7.5 6.465-.118 8.884-4.151 9.245-8.45.128-1.972-.381-3.933-1.699-5.591-.402-.506-1.257-1.328-1.804-1.735a11.375 11.375 0 0 0-5.134-2.132A10.392 10.392 0 0 0 7.937 4.5z"/><path style="fill:#e4e4e4" d="M7.937 4c-.513-.004-1.028.02-1.407.072-1.59.218-3.054.744-4.539 1.62v2.59C3.48 6.95 5.481 6.072 7.598 6c.169-.006.333-.007.493-.002 1.12.034 2.037.32 2.964.768 1.862.899 3.227 2.61 3.726 4.67.576 2.375.04 4.923-1.353 6.432-1.06 1.15-2.988 1.807-4.823 1.647-1.132-.1-2.268-.478-3.098-1.036-.344-.231-.924-.795-1.173-1.138-.714-.986-1.043-2.025-.951-3.007.162-1.733 1.473-3.135 3.568-3.645.603-.146 1.318-.209 1.673-.145 1.024.183 1.813 1.248 1.81 2.312-.001.324-.013.36-.198.735-.456.922-1.497 1.52-2.187 1.327-.412-.116-.744-.675-.842-1.265-.056-.335-.123-.487-.253-.578-.43-.303-1.168.47-1.36 1.422-.163.816-.028 1.488.458 2.027.332.37.976.736 1.586.906.285.079.43.09 1.106.09.877 0 1.264-.053 1.836-.325 1.148-.546 2.055-1.773 2.44-3.3.428-1.696.011-3.215-1.19-4.35-.787-.743-1.832-1.224-3.191-1.47-1.626-.262-3.325.174-4.523.958C1.891 10.511 1.085 11.832 1 14.5c.013 4.892 3.491 7.5 7.727 7.5 6.465-.118 8.884-4.151 9.245-8.45.128-1.972-.381-3.933-1.699-5.591-.402-.506-1.257-1.328-1.804-1.735a11.375 11.375 0 0 0-5.134-2.132A10.392 10.392 0 0 0 7.937 4z"/></svg>
